public/icons/cross.svg

<svg class="svg-icon" style="width: 1em; height: 1em;vertical-align: middle;fill: currentColor;overflow: hidden;" viewBox="0 0 1024 1024" version="1.1" xmlns="http://www.w3.org/2000/svg"><path d="M810.65984 170.65984q18.3296 0 30.49472 12.16512t12.16512 30.49472q0 18.00192-12.32896 30.33088l-268.67712 268.32896 268.67712 268.32896q12.32896 12.32896 12.32896 30.33088 0 18.3296-12.16512 30.49472t-30.49472 12.16512q-18.00192 0-30.33088-12.32896l-268.32896-268.67712-268.32896 268.67712q-12.32896 12.32896-30.33088 12.32896-18.3296 0-30.49472-12.16512t-12.16512-30.49472q0-18.00192 12.32896-30.33088l268.67712-268.32896-268.67712-268.32896q-12.32896-12.32896-12.32896-30.33088 0-18.3296 12.16512-30.49472t30.49472-12.16512q18.00192 0 30.33088 12.32896l268.32896 268.67712 268.32896-268.67712q12.32896-12.32896 30.33088-12.32896z"  /></svg>

<svg width="1024" height="1024" viewBox="0 0 1024 1024" fill="none" xmlns="http://www.w3.org/2000/svg">
<path d="M810.66 170.66C822.879 170.66 833.044 174.715 841.154 182.825C849.264 190.935 853.32 201.1 853.32 213.32C853.32 225.321 849.21 235.432 840.991 243.651L572.313 511.98L840.991 780.309C849.21 788.528 853.32 798.638 853.32 810.64C853.32 822.859 849.264 833.024 841.154 841.134C833.044 849.244 822.879 853.299 810.66 853.299C798.658 853.299 788.548 849.19 780.329 840.971L512 572.293L243.671 840.971C235.452 849.19 225.341 853.299 213.34 853.299C201.12 853.299 190.955 849.244 182.845 841.134C174.735 833.024 170.68 822.859 170.68 810.64C170.68 798.638 174.79 788.528 183.009 780.309L451.686 511.98L183.009 243.651C174.79 235.432 170.68 225.321 170.68 213.32C170.68 201.1 174.735 190.935 182.845 182.825C190.955 174.715 201.12 170.66 213.34 170.66C225.341 170.66 235.452 174.77 243.671 182.989L512 451.666L780.329 182.989C788.548 174.77 798.658 170.66 810.66 170.66Z" fill="white"/>
</svg>
